X: 10023
T: The CACHUCHA DANCE
%R: waltz
B: W. Hamilton "Universal Tune-Book" Vol. 1 Glasgow 1844 p.2 #3
S: http://imslp.org/wiki/Hamilton's_Universal_Tune-Book_(Various)
Z: 2016 John Chambers <jc:trillian.mit.edu>
N: The 1st strain has 15 bars; the 2nd strain has 17 bars.
N: The 1st ending of the 1st strain has no repeat. It could be correct, with the 2nd ending only played for the D.C.
M: 3/8
L: 1/16
K: F
% - - - - - - - - - - - - - - - - - - - - - - - - -
c2 !segno!|:\
.f2(fe)(fg) | a2f2c2 | c2d2A2 | (c4B2) |\
.G2(g^f)(ga) | b2g2e2 | c2d2G2 | (B4A2) |\
.f2(fe)(fg) | a2f2c2 | c2d2A2 | (c4B2) |\
.G2(g^f)(ga) | b2g2e2 |[1 c2e2G2 |][2 c2d2f2 H|]
(A2cd)(cB) | A2A2G2 | B2A2A2 | F2A2B2 | c2d2c2 | G2G2^F2 | A2G2G2 | G2A2B2 | c2d2B2 | A2A2G2 | B2A2A2 | F2A2B2 | c2d2c2 | G2G2^F2 | A2G2G2 | G2A2B2 | c2d2"_D.C."e2 !segno!:|
% - - - - - - - - - - - - - - - - - - - - - - - - -

%%sep 1 1 500
%%sep 1 1 500

